X:286
T:Love Grown Cold
C:Mike Compton
N:Transcribed by Larry Tanner
R:bluegrass
L:1/8
Q:1/4=200
M:4/4
K:A
z2 A2 Ac d2 | "A"ee ee ee ea | "E"ac' a=g ed {=c}^cA | {=c}"A"^ce d=c ^cA {=c}^cA | 
{=c}^cA {=c}^cA {=c}^cA FD | "D"DF Ad fa2a | c'a2e dc A2 | "A"[ae][ae] z[ae] [ae][ae] z2 | 
[ae][ae] [ae][ae] [ae][ae] z2 | "D"ac' af a/b/a f2 | ea ed {=c}^cA {=c}^cA | "A"[cA][cA] [c2A2] E/D/C A,2 | 
[AE][A2E2]A {B}=c{B}c z2 | "E"[eB][eB] [eB][eB] [e3B3]A | {B}=c{B}c2A {B}c{B}c2B | 
"A"A2 A,C DE FA | z2 [eA][eA] z2 [eA][eA] | z4 ed cA | a8 | z8 | z8 | z8 | z8 | 
z8 | z8 | 


